X:2
T:No.64 The Bargain Is Over
C:jig
M:6/8
L:1/8
K:G
c2A AGE|c2A AGE|G2G AGE|
G3E3|c2Bc2d|efe e2d|
cBA BAG|A3A2B:|c2Bc2d|
efee2d|c2Bc2d|e3E3|
c2Bc2d|efee2d|cBA BAG|
|[1A3A2B:|[2A3A3||
